X:3
T:Dune
C:Chris Walshaw
N:see also: XECW 8
R:hornpipe
M:C|
N:can use AGFG or FEFG in A4 in place of A2AG
K:F
DFAD BDAD|DFAF GFEF|DFAD BDAD|1 G2GF GFEF:|2 GFEF D4|]
d2dc BAGF|DFAD BDAD|1 d2dc BAGF|GFEF GFED:|2 d2dc BAGd|e2ed cBAG|]

